X: 398
T:Mi lares vous tousjours languir
N: Derived from Jos2916-Mi_lares_vous_tousjours_languir.krn
C: Josquin des Prez
%%abc-version 2.0
%%abcx-abcm2ps-target-version 5.9.1 (29 Sep 2008)
%%abc-creator hum2abc beta
%%abcx-conversion-date 2019/02/12 16:15:55
%%abc-edited-by Jesse Rodin
%%abc-edited-by Will Watson 09/12/2011
%%abcx-initial-encoding-date 2011/12/09/
%%humdrum-veritas 737041954
%%humdrum-veritas-data 1458633685
%%linebreak <none>
%%barnumbers 0
L: 1/4
M: 2/1
Q: 1/2=120
V: 1 clef=treble
V: 2 clef=treble-8
V: 3 clef=treble-8
V: 4 clef=bass
V: 5 clef=bass
K: F
[V:1] A8 | 
[V:2] A4d4 | 
[V:3] e4f4 | 
[V:4] z8 | 
[V:5] z8 | 
[V:1] d4G4 | 
[V:2] G4c3d | 
[V:3] d4e4 | 
[V:4] z8 | 
[V:5] z8 | 
[V:1] c6c2 | 
[V:2] e2f2z2F2 | 
[V:3] c3de2f2 | 
[V:4] A,8 | 
[V:5] z8 | 
[V:1] B2A4G2 | 
[V:2] G2A2B4 | 
[V:3] B3cd2e2 | 
[V:4] D4G,4 | 
[V:5] z8 | 
[V:1] A8 | 
[V:2] A4E4 | 
[V:3] f2e2c4 | 
[V:4] C6B,2 | 
[V:5] A,,8 | 
[V:1] z8 | 
[V:2] F4D4 | 
[V:3] d4B2d2- | 
[V:4] A,4G,4 | 
[V:5] D,4G,,4 | 
[V:1] z8 | 
[V:2] E4F4 | 
[V:3] d2c4B2- | 
[V:4] A,4z4 | 
[V:5] C,4D,4 | 
[V:1] z8 | 
[V:2] E2C2D4 | 
[V:3] B2A4G2 | 
[V:4] z4D4 | 
[V:5] C,2A,,2B,,4 | 
[V:1] z4A4 | 
[V:2] E8 | 
[V:3] A4e3d | 
[V:4] C2A,2C3B, | 
[V:5] A,,8 | 
[V:1] A2A2B2B2 | 
[V:2] z8 | 
[V:3] e2f2d4 | 
[V:4] A,2F,2G,4 | 
[V:5] z8 | 
[V:1] c3BAGA2- | 
[V:2] z8 | 
[V:3] c3de2f2- | 
[V:4] A,8- | 
[V:5] z8 | 
[V:1] A2GFE4 | 
[V:2] z4E4 | 
[V:3] fed4^c2 | 
[V:4] A,8 | 
[V:5] z4A,,4 | 
[V:1] D8 | 
[V:2] F2DEFGAB | 
[V:3] d8 | 
[V:4] z2A,2B,2A,2- | 
[V:5] D,4D,4 | 
[V:1] A4A2A2 | 
[V:2] cAd4^c2 | 
[V:3] z8 | 
[V:4] A,2G,F,E,4 | 
[V:5] A,,4A,,2A,,2 | 
[V:1] F2G4F2 | 
[V:2] d8- | 
[V:3] z8 | 
[V:4] D,8- | 
[V:5] B,,2G,,A,,B,,C,D,E, | 
[V:1] B4A4 | 
[V:2] d8 | 
[V:3] z4A4 | 
[V:4] D,8 | 
[V:5] F,D,G,4^F,2 | 
[V:1] G8 | 
[V:2] z2d4B2- | 
[V:3] B2GABcde | 
[V:4] z8 | 
[V:5] G,8 | 
[V:1] z4A4 | 
[V:2] B2AGA2A2 | 
[V:3] fdg4^f2 | 
[V:4] D8 | 
[V:5] D,8 | 
[V:1] B2G2B2A2- | 
[V:2] G4F4 | 
[V:3] g4z4 | 
[V:4] D4D4 | 
[V:5] z4D,4 | 
[V:1] A2G4^F2 | 
[V:2] G2C2F4 | 
[V:3] G4A2A2 | 
[V:4] B,2C2D4 | 
[V:5] _E,2E,2D,4 | 
[V:1] G4z2F2 | 
[V:2] D8 | 
[V:3] B3AG2F2 | 
[V:4] D4z2C2 | 
[V:5] G,,8 | 
[V:1] G2G2F2F2 | 
[V:2] z2G2A2A2 | 
[V:3] _E4D4 | 
[V:4] B,2C2D4 | 
[V:5] z8 | 
[V:1] G3FEDD2- | 
[V:2] B3AG2F2 | 
[V:3] d3cB2A2 | 
[V:4] G,4z2F2 | 
[V:5] z8 | 
[V:1] D2^C2D2A2 | 
[V:2] E4D4 | 
[V:3] G4F4 | 
[V:4] E2E2F3E | 
[V:5] z2G,2A,2A,2 | 
[V:1] F2GFEDD2- | 
[V:2] z4z2d2 | 
[V:3] z8 | 
[V:4] D2C2B,2A,2 | 
[V:5] B,3A,G,2F,2 | 
[V:1] D2^C2D4 | 
[V:2] e2e2f3e | 
[V:3] z2G2A2A2 | 
[V:4] G,4F,4- | 
[V:5] E,4D,2D,2 | 
[V:1] z8 | 
[V:2] d2c2B2cB | 
[V:3] B3AGF_E2- | 
[V:4] F,4z4 | 
[V:5] D,2D,2_E,3D, | 
[V:1] z2G2A2A2 | 
[V:2] AGG4^F2 | 
[V:3] EDD4C2 | 
[V:4] z4[M:3/3](3:2:2C4C2 | 
[V:5] C,2B,,2A,,4 | 
[V:1] B6A2 | 
[V:2] G4z4 | 
[V:3] D8 | 
[V:4] (3:2:6B,3A,G,2D3EF2 | 
[V:5] G,,4z4 | 
[V:1] G2F2E4 | 
[V:2] z2F2G2A2 | 
[V:3] z8 | 
[V:4] [M:2/1]E2D4^C2 | 
[V:5] z8 | 
[V:1] D2B4A2- | 
[V:2] B3AG2F2 | 
[V:3] z2d2d2d2 | 
[V:4] D8 | 
[V:5] z8 | 
[V:1] A2G4^F2 | 
[V:2] B4A4 | 
[V:3] z2d2d2d2 | 
[V:4] z2G,2A,2A,2 | 
[V:5] z2G,2D,2D,2 | 
[V:1] G4z4 | 
[V:2] G4z2F2 | 
[V:3] d4z2f2 | 
[V:4] B,3B,A,2D2 | 
[V:5] G,2G,2F,2D,2 | 
[V:1] z4z2F2 | 
[V:2] G2A2F2B2- | 
[V:3] e2c2d3c | 
[V:4] C4B,4 | 
[V:5] E,2F,2B,,4 | 
[V:1] G2A2B3A | 
[V:2] B2A2G3F | 
[V:3] def2B4 | 
[V:4] z8 | 
[V:5] z8 | 
[V:1] G2F2E2E2 | 
[V:2] EDd4^c2 | 
[V:3] z8 | 
[V:4] z2F,2G,2A,2 | 
[V:5] z8 | 
[V:1] D2B4A2- | 
[V:2] d8- | 
[V:3] z8 | 
[V:4] B,3A,G,2F,2 | 
[V:5] z8 | 
[V:1] A2G4^F2 | 
[V:2] d4z4 | 
[V:3] z2d2_e2d2 | 
[V:4] B,4A,4 | 
[V:5] z2B,,2C,2D,2 | 
[V:1] G8- | 
[V:2] z4z2G2- | 
[V:3] B2_e4d2 | 
[V:4] G,8- | 
[V:5] _E,3D,C,2B,,2 | 
[V:1] G8- | 
[V:2] G2c4B2 | 
[V:3] c2_e2d4 | 
[V:4] G,8- | 
[V:5] C,4G,,4 | 
[V:1] G8- | 
[V:2] c2d2_e4 | 
[V:3] G4c4 | 
[V:4] G,8- | 
[V:5] C,8 | 
[V:1] G8 |]  
[V:2] d8 |]  
[V:3] B8 |]  
[V:4] G,8 |]  
[V:5] G,,8 |]  



